envkey-assets/source/images/eye-black.svg

<?xml version="1.0" encoding="UTF-8" standalone="no"?>
<svg width="42px" height="24px" viewBox="0 0 42 24" version="1.1" xmlns="http://www.w3.org/2000/svg" xmlns:xlink="http://www.w3.org/1999/xlink">
    <!-- Generator: Sketch 41.2 (35397) - http://www.bohemiancoding.com/sketch -->
    <title>Fill 1</title>
    <desc>Created with Sketch.</desc>
    <defs></defs>
    <g id="Page-1" stroke="none" stroke-width="1" fill="none" fill-rule="evenodd">
        <g id="Fill-1" fill="#000000">
            <path d="M41.99776,11.9213023 C41.99776,11.904 41.99552,11.8866977 41.99328,11.8693953 C41.99328,11.8604651 41.99104,11.8515349 41.99104,11.8431628 C41.9888,11.8297674 41.98712,11.8169302 41.98712,11.8057674 C41.98488,11.7906977 41.98264,11.7778605 41.9804,11.7622326 L41.9804,11.7577674 C41.92776,11.4351628 41.77488,11.1298605 41.5408,10.8965581 C40.20184,9.31423256 38.60696,7.90548837 36.98632,6.61897674 C33.49696,3.84837209 29.50528,1.52818605 25.09696,0.594976744 C22.5512,0.0569302326 19.98696,0.0329302326 17.42776,0.488372093 C15.09816,0.902511628 12.85368,1.76595349 10.75368,2.83646512 C7.46592,4.51088372 4.46264,6.81990698 1.84632,9.40744186 C1.36304,9.88744186 0.8792,10.375814 0.4396,10.8965581 C-0.14672,11.5903256 -0.14672,12.4096744 0.4396,13.1012093 C1.77856,14.684093 3.37288,16.0922791 4.99408,17.3787907 C8.48512,20.1499535 12.47736,22.4695814 16.88288,23.4027907 C19.4292,23.9413953 21.99288,23.9653953 24.55264,23.5093953 C26.88,23.0952558 29.12448,22.231814 31.22672,21.1613023 C34.51448,19.4868837 37.51776,17.1778605 40.13408,14.5903256 C40.61736,14.1103256 41.1012,13.6219535 41.5408,13.1012093 C41.77488,12.867907 41.92776,12.5648372 41.9804,12.24 L41.9804,12.2355349 C41.98264,12.2204651 41.98488,12.2070698 41.98712,12.192 C41.9888,12.1786047 41.99104,12.168 41.99104,12.1546047 C41.99104,12.1462326 41.99328,12.1373023 41.99328,12.1283721 C41.99552,12.1110698 41.99552,12.096 41.99776,12.0786977 C42,12.0524651 42,12.0262326 42,12 C42,11.9737674 42,11.9475349 41.99776,11.9213023 Z M21,20.0539535 C16.53736,20.0539535 12.9192,16.447814 12.9192,12 C12.9192,7.55218605 16.53736,3.94604651 21,3.94604651 C25.46264,3.94604651 29.0808,7.55218605 29.0808,12 C29.0808,16.447814 25.46264,20.0539535 21,20.0539535 Z"></path>
        </g>
    </g>
</svg>

<svg width="42" height="24" viewBox="0 0 42 24" xmlns="http://www.w3.org/2000/svg"><title>Fill 1</title><path d="M41.998 11.921a.315.315 0 0 0-.005-.052l-.002-.026a.236.236 0 0 1-.004-.037l-.007-.044v-.004a1.58 1.58 0 0 0-.44-.861c-1.338-1.583-2.933-2.992-4.554-4.278-3.489-2.77-7.48-5.09-11.889-6.024a19.922 19.922 0 0 0-7.67-.107c-2.329.415-4.573 1.278-6.673 2.348C7.466 4.511 4.463 6.82 1.846 9.407c-.483.48-.967.969-1.406 1.49-.587.693-.587 1.513 0 2.204 1.339 1.583 2.933 2.991 4.554 4.278 3.491 2.771 7.483 5.09 11.889 6.024 2.546.538 5.11.562 7.67.106 2.327-.414 4.571-1.277 6.674-2.348 3.287-1.674 6.29-3.983 8.907-6.57.483-.48.967-.969 1.407-1.49.234-.233.387-.536.44-.861v-.004l.006-.044c.002-.013.004-.024.004-.037l.002-.027c.003-.017.003-.032.005-.05C42 12.053 42 12.027 42 12c0-.026 0-.052-.002-.079zM21 20.054c-4.463 0-8.08-3.606-8.08-8.054S16.536 3.946 21 3.946 29.08 7.552 29.08 12s-3.617 8.054-8.08 8.054z" fill-rule="evenodd"/></svg>
